X:584
T:Miss Sarah Drummond of Perth
R:Strathspey
B:The Athole Collection
M:C
L:1/8
K:E Minor
B,|E3F E/E/E E>F|A>BA>F D>EF>D|B,<E E>D E>FG>e|d>BA>F B2E:|
B|e3f e/e/e e>d|B<d A>F D>EF>D|e3f e/e/e e>d|B<d F>A B2 E>B|
e3 f e/e/e e>d|B<d A>F D>EF>D|B,<E E>D E>FG>e|d<B A>F B2E||

